X:12
T:Up in the Woods
C:John Reischman
N:Transcribed by Don Grieser
R:bluegrass
L:1/8
Q:1/4=240
M:4/4
K:G
| z2 DD D2 E2 | "G"EG GG GG G2 | ^AB BB B=A G2 | Bd dd d2 eg | "C"e2 ef gf ed | 
|"G"B2 dd d2 A^A | Bd dB GA BG | "D"AG [AA][AA] [A2A2] [A2G2] | [A2F2] DD D2 E2 | 
|"G"EG GG GG G2 | ^AB BB B=A G2 | Bd dd d2 eg | "C"e2 ef gf ed | "G"B2 dd d2 AB | 
|"D"cB AG FG AF | "G"G2 GG G2 GG | G2 ef gf ed | "Em"B2 de ee e2 | "C"fg gg gf ed | 
|"G"B2 d2 dd dd | d2 ef gf ed | "Em"B2 de ee e2 | "C"fg gg gf eB | "D"Bd d2 dd dd | 
|d2 DD D2 E2 | "G"EG GG GG G2 | ^AB BB B=A G2 | Bd dd d2 eg | "C"e2 ef gf ed | 
|"G"B2 dd d2 AB | "D"cB AG FG AF | "G"G2 GG G2 GG | G8 | 

